X: 1
T: the Pandean Dance in Tekeli
C: ???
R: jig
Z: 2014 John Chambers <jc:trillian.mit.edu>
S: Hardy MSS
S: Welch MSS (1800) as "Pedean Dance in Tekile".
S:  a c. 1837-1840 MS by Shropshire musician John Moore [Ashman].
F: http://www.folktunefinder.com/typeset/dots/198705/
M: 6/8
L: 1/8
K: D
A |\
"D"d2d dcd | "G"B2B "Em"Bed | "A7"cBA ABc | "D"d2f "A7"a2A |\
"D"d2d dcd | "G"B2B "E7"Bed | "A7"cBA ABc | "D"dAF !fine!D2 :|
f |\
"A7"g2e efe | "D"c2A ABA | "D"a2a aba | "D"f2d "A7"d2A |\
"D"dcd "A7"ede | "D"fef "G"gfg | "D"aba agf | "Bm"f3 "A7"e2"d.C."y|]
